src/assets/emoji/noto-emoji/1F6CF.svg

<svg enable-background="new 0 0 128 128" viewBox="0 0 128 128" xmlns="http://www.w3.org/2000/svg"><path d="m-284.83 92h76.85c17.69 0 29.98 3.76 29.98 8.81v10.19h-107l0.17-19z" fill="#BDBDBD"/><rect transform="matrix(8.3446e-11 1 -1 8.3446e-11 -124.08 340.08)" x="-236.08" y="52.08" width="8" height="111.83" fill="#757575"/><path d="m-172 124h-8v-36.33c0-2.21 1.79-4 4-4s4 1.79 4 4v36.33z" fill="#757575"/><path d="m-285 82h17s12 0 12 10h-29v-10z" fill="#E0E0E0"/><path d="m-284 124h-8v-56c0-2.21 1.79-4 4-4s4 1.79 4 4v56z" fill="#757575"/><linearGradient id="c" x1="-81.11" x2="-81.11" y1="95" y2="124.25" gradientUnits="userSpaceOnUse"><stop stop-color="#9CCC65" offset="0"/><stop stop-color="#7CB342" offset=".9991"/></linearGradient><path d="m-138.08 92h80.62c14.33 0 25.29 2.24 29.53 5.59 1.25 0.99 3.95 2.07 3.95 3.22v10.19h-114.28l0.18-19z" fill="url(#c)"/><path d="m-125.27 86.18c0.97-2.5 3.37-4.15 6.06-4.15h12.55s12 0 12 10h-32.87l2.26-5.85z" fill="#FFEE58"/><g opacity=".2"><path d="m-106.84 85c0.95 0.01 9.08 0.3 9.09 7.01 0 1.65 1.43 2.99 3.08 2.99h37.21c15.79 0 24.77 2.66 27.66 4.94 0.54 0.43 1.17 0.81 1.78 1.17 0.29 0.17 0.7 0.42 1.01 0.63v6.26h-108.22l0.12-13h7.58c1.24 0 2.35-0.76 2.8-1.92l2.25-5.83c0.52-1.34 1.83-2.25 3.26-2.25h12.22m0.33-3h-12.55c-2.68 0-5.09 1.66-6.06 4.16l-2.26 5.84h-10.55l-0.17 19h114.26v-10.19c0-1.15-2.68-2.24-3.94-3.22-4.24-3.35-15.18-5.59-29.52-5.59h-37.21c-0.02-9.97-12-10-12-10z" fill="#424242"/></g><rect transform="matrix(8.6174e-11 1 -1 8.6174e-11 27.596 188.4)" x="-84.4" y="50.21" width="8" height="115.59" fill="#795548"/><g opacity=".2"><path d="m-24.61 106v4h-111.59v-4h111.59m2-2h-115.59v8h115.59v-8z" fill="#424242"/></g><path d="m-20 124h-8v-36.33c0-2.21 1.79-4 4-4s4 1.79 4 4v36.33z" fill="#795548"/><path d="m-132 124h-8v-56c0-2.21 1.79-4 4-4s4 1.79 4 4v56z" fill="#795548"/><g opacity=".2"><path d="m-24 85.67c1.1 0 2 0.9 2 2v34.33h-4v-34.33c0-1.11 0.9-2 2-2m0-2c-2.21 0-4 1.79-4 4v36.33h8v-36.33c0-2.21-1.79-4-4-4z" fill="#424242"/></g><g opacity=".2"><path d="m-136 66c1.1 0 2 0.9 2 2v54h-4v-54c0-1.1 0.9-2 2-2m0-2c-2.21 0-4 1.79-4 4v56h8v-56c0-2.21-1.79-4-4-4z" fill="#424242"/></g><linearGradient id="b" x1="22" x2="22" y1="88" y2="103.99" gradientUnits="userSpaceOnUse"><stop stop-color="#FFEE58" offset="0"/><stop stop-color="#FDD835" offset="1"/></linearGradient><path d="M36,103.99H8V88h22c3.31,0,6,2.69,6,6V103.99z" fill="url(#b)"/><linearGradient id="a" x1="78" x2="78" y1="88" y2="103.99" gradientUnits="userSpaceOnUse"><stop stop-color="#9CCC65" offset="0"/><stop stop-color="#7CB342" offset=".9991"/></linearGradient><path d="M120,103.99H36V94c0-3.31,2.69-6,6-6h72c3.31,0,6,2.69,6,6V103.99z" fill="url(#a)"/><g opacity=".2"><path d="m114 90c2.21 0 4 1.79 4 4v8h-108v-12h20c2.21 0 4 1.79 4 4 0 1.1 0.9 2 2 2s2-0.9 2-2c0-2.21 1.79-4 4-4h72m0-2h-72c-3.31 0-6 2.69-6 6 0-3.31-2.69-6-6-6h-22v16h112v-10c0-3.31-2.69-6-6-6z" fill="#424242"/></g><path d="M124,113.64H8V100h110c3.31,0,6,2.69,6,6V113.64z" fill="#FFF9C4"/><polygon points="10 123.95 4 123.95 4 111.98 16 111.98" fill="#795548"/><g opacity=".2"><path d="m118 102c2.21 0 4 1.79 4 4v5.64h-112v-9.64h108m0-2h-110v13.64h116v-7.64c0-3.31-2.69-6-6-6z" fill="#424242"/></g><polygon points="118 123.95 124 123.95 124 111.98 112 111.98" fill="#795548"/><rect x="4" y="110.1" width="120" height="5.86" fill="#795548"/><path d="m12.13 115.97h-8.13v-47.92c0-2.24 1.82-4.06 4.06-4.06s4.06 1.82 4.06 4.06v47.92z" fill="#795548"/><g opacity=".2"><path d="m8 65.98c1.12 0 2 0.91 2 2.06v41.96c0 1.1 0.9 2 2 2h110v10h-2.76l-3.45-6.89c-0.34-0.68-1.03-1.11-1.79-1.11h-100c-0.76 0-1.45 0.43-1.79 1.11l-3.45 6.89h-2.76v-53.95c0-1.16 0.88-2.07 2-2.07m0-2c-2.24 0-4 1.82-4 4.06v55.96h6l4-8h100l4 8h6v-14h-112v-41.95c0-2.25-1.76-4.07-4-4.07z" fill="#424242"/></g></svg>

<?xml version="1.0" encoding="utf-8"?>
<!-- Generator: Adobe Illustrator 24.0.3, SVG Export Plug-In . SVG Version: 6.00 Build 0)  -->
<svg version="1.1" id="Layer_1" xmlns="http://www.w3.org/2000/svg" xmlns:xlink="http://www.w3.org/1999/xlink" x="0px" y="0px"
	 viewBox="0 0 128 128" style="enable-background:new 0 0 128 128;" xml:space="preserve">
<linearGradient id="SVGID_1_" gradientUnits="userSpaceOnUse" x1="22" y1="801.8898" x2="22" y2="817.8898" gradientTransform="matrix(1 0 0 1 0 -713.8898)">
	<stop  offset="0" style="stop-color:#FFEE58"/>
	<stop  offset="1" style="stop-color:#FDD835"/>
</linearGradient>
<path style="fill:url(#SVGID_1_);" d="M36,104H8V88h22c3.3,0,6,2.7,6,6V104z"/>
<linearGradient id="SVGID_2_" gradientUnits="userSpaceOnUse" x1="78" y1="801.8898" x2="78" y2="817.8898" gradientTransform="matrix(1 0 0 1 0 -713.8898)">
	<stop  offset="0" style="stop-color:#9CCC65"/>
	<stop  offset="0.9991" style="stop-color:#7CB342"/>
</linearGradient>
<path style="fill:url(#SVGID_2_);" d="M120,104H36V94c0-3.3,2.7-6,6-6h72c3.3,0,6,2.7,6,6V104z"/>
<g style="opacity:0.2;">
	<path style="fill:#424242;" d="M114,90c2.2,0,4,1.8,4,4v8H10V90h20c2.2,0,4,1.8,4,4c0,1.1,0.9,2,2,2s2-0.9,2-2c0-2.2,1.8-4,4-4H114
		 M114,88H42c-3.3,0-6,2.7-6,6c0-3.3-2.7-6-6-6H8v16h112V94C120,90.7,117.3,88,114,88z"/>
</g>
<path style="fill:#FFF9C4;" d="M124,113.6H8V100h110c3.3,0,6,2.7,6,6V113.6z"/>
<polygon style="fill:#795548;" points="10,123.9 4,123.9 4,112 16,112 "/>
<g style="opacity:0.2;">
	<path style="fill:#424242;" d="M118,102c2.2,0,4,1.8,4,4v5.6H10V102H118 M118,100H8v13.6h116V106C124,102.7,121.3,100,118,100z"/>
</g>
<polygon style="fill:#795548;" points="118,123.9 124,123.9 124,112 112,112 "/>
<rect x="4" y="110.1" style="fill:#795548;" width="120" height="5.9"/>
<path style="fill:#795548;" d="M12.1,116H4V68.1C4,65.8,5.8,64,8.1,64s4.1,1.8,4.1,4.1L12.1,116L12.1,116z"/>
<g style="opacity:0.2;">
	<path style="fill:#424242;" d="M8,66c1.1,0,2,0.9,2,2.1v42c0,1.1,0.9,2,2,2h110v10h-2.8l-3.4-6.9c-0.3-0.7-1-1.1-1.8-1.1H14
		c-0.8,0-1.4,0.4-1.8,1.1L8.8,122H6V68.1C6,66.9,6.9,66,8,66 M8,64c-2.2,0-4,1.8-4,4.1v56h6l4-8h100l4,8h6v-14H12v-42
		C12,65.8,10.2,64,8,64z"/>
</g>
</svg>
